X:1     %Music
B:Jones, Lewis, 1998,Miss Broadwood's Delight,Ferret Publ., Sutton Coldfield
Z:Lucy Broadwood
S:Henry Burstow
F:http://www.folkinfo.org/songs
T:I must live all alone
M:3/4     %Meter
L:1/8     %
K:G
E2 |B2 B2 B2 |A2 B2 A2 |G2 F2 G2 | E2 z2
w:As I was a-walk-ing one morn-ing by chance,
 E2 |G3 F E2 |c2 B2 A2 |B6 | z4
w: I heard a maid mak-ing her moan. 
E2 |B2 B2 B2 |A2 A2 B2 |G3 F E2 | e2 z2
w:I asked why she sighed and she sad-ly re-plied
 B2 |c3 c c2 |d2 d2 d2 |G6 | A6 |B6-|B2 z2
w:"A-las I must live all a-lone,  a-lone,_ 
 (GA) |B3 c B2 | A2 G2 F2 |E6-|E4 z2 |]
w:A-*las I must live all a-lone *